assets/images/icons/truck.svg

<svg width="52" height="39" viewBox="0 0 52 39" fill="none" xmlns="http://www.w3.org/2000/svg">
<path d="M44.202 32.9349C44.202 35.7951 42.4685 38.1352 40.3018 38.1352C38.135 38.1352 36.4016 35.7951 36.4016 32.9349C36.4016 30.0747 38.135 27.7346 40.3018 27.7346C42.4685 27.7346 44.202 30.0747 44.202 32.9349Z" fill="#FECC00"/>
<path d="M13.0878 32.9349C13.0878 35.7951 11.3543 38.1352 9.18757 38.1352C7.02082 38.1352 5.28735 35.7951 5.28735 32.9349C5.28735 30.0747 7.02082 27.7346 9.18757 27.7346C11.3543 27.7346 13.0878 30.0747 13.0878 32.9349Z" fill="#FECC00"/>
<path d="M50.2691 16.4674H45.0688L37.875 8.49362C37.5283 8.06022 36.9216 7.80021 36.4015 7.80021H26.8676V3.37996C26.8676 1.99325 25.7409 0.866455 24.3541 0.866455H5.97994C4.59323 0.866455 3.46643 1.99315 3.46643 3.37996V22.5344H26.8677V32.935H36.4016C36.4016 30.0748 38.7418 27.7347 41.6019 27.7347C44.4621 27.7347 46.8022 30.0748 46.8022 32.935H50.009C50.6157 32.935 51.1357 32.4149 51.1357 31.8083V18.1142C51.1358 17.5941 50.6158 16.8141 50.2691 16.4674Z" fill="#FED100"/>
<path d="M27.7349 23.4013H0V3.38019C0 1.47345 1.47345 0 3.38019 0H24.4414C26.2615 0 27.7349 1.47345 27.7349 3.38019V23.4013ZM1.73346 21.6678H26.0014V3.38019C26.0014 2.51351 25.308 1.73346 24.3547 1.73346H3.38019C2.42677 1.73346 1.73346 2.42687 1.73346 3.38019V21.6678Z" fill="#333333"/>
<path d="M41.6019 39.0021C38.2218 39.0021 35.535 36.3153 35.535 32.9351C35.535 29.5549 38.2218 26.8682 41.6019 26.8682C44.9821 26.8682 47.6689 29.5549 47.6689 32.9351C47.6689 36.3153 44.9821 39.0021 41.6019 39.0021ZM41.6019 28.6015C39.1752 28.6015 37.2683 30.5083 37.2683 32.9351C37.2683 35.362 39.1751 37.2687 41.6019 37.2687C44.0287 37.2687 45.9356 35.362 45.9356 32.9351C45.9356 30.5083 44.0287 28.6015 41.6019 28.6015Z" fill="#333333"/>
<path d="M10.401 39.0021C7.02083 39.0021 4.33405 36.3153 4.33405 32.9351C4.33405 29.5549 7.02083 26.8682 10.401 26.8682C13.7812 26.8682 16.468 29.5549 16.468 32.9351C16.468 36.3153 13.7812 39.0021 10.401 39.0021ZM10.401 28.6015C7.97425 28.6015 6.06741 30.5083 6.06741 32.9351C6.06741 35.362 7.97415 37.2687 10.401 37.2687C12.8279 37.2687 14.7346 35.362 14.7346 32.9351C14.7346 30.5083 12.8278 28.6015 10.401 28.6015Z" fill="#333333"/>
<path d="M50.7032 23.4013H35.969C35.449 23.4013 35.1024 23.0547 35.1024 22.5346C35.1024 22.0146 35.449 21.668 35.969 21.668H50.7032C51.2233 21.668 51.5699 22.0146 51.5699 22.5346C51.5699 23.0546 51.2233 23.4013 50.7032 23.4013Z" fill="#333333"/>
<path d="M13.8674 15.6008H0.866681C0.346652 15.6008 0 15.2541 0 14.7341C0 14.2141 0.346652 13.8674 0.866681 13.8674H13.8674C14.3874 13.8674 14.7341 14.2141 14.7341 14.7341C14.7342 15.254 14.3874 15.6008 13.8674 15.6008Z" fill="#333333"/>
<path d="M10.4006 11.2671H0.866681C0.346652 11.2671 0 10.9204 0 10.4004C0 9.88034 0.346652 9.53369 0.866681 9.53369H10.4006C10.9206 9.53369 11.2673 9.88034 11.2673 10.4004C11.2673 10.9204 10.9206 11.2671 10.4006 11.2671Z" fill="#333333"/>
<path d="M49.2292 33.8021H45.9357V32.9354C45.9357 30.5086 44.0289 28.6018 41.6021 28.6018C39.1753 28.6018 37.2684 30.5085 37.2684 32.9354V33.8021H26.0013V6.93384H36.6619C37.8753 6.93384 38.9154 7.45387 39.6954 8.40729L45.4157 15.6011L45.5024 15.6877H49.1426C50.7027 15.6877 51.9161 16.9878 51.9161 18.4612V31.0285C52.0027 32.502 50.7027 33.8021 49.2292 33.8021ZM47.5825 32.0686H49.1426C49.7492 32.0686 50.1826 31.5486 50.1826 30.9419V18.4612C50.1826 17.8545 49.6626 17.4212 49.1426 17.4212H45.5024C44.8957 17.4212 44.3757 17.1611 44.0289 16.7278L38.3086 9.53398C37.962 8.92732 37.3552 8.6673 36.6619 8.6673H27.7347V32.0686H35.6218C36.0552 29.1218 38.5686 26.8683 41.6022 26.8683C44.6357 26.8683 47.1491 29.1218 47.5825 32.0686Z" fill="#333333"/>
<path d="M27.7349 33.802H14.7342V32.9353C14.7342 30.5086 12.8274 28.6017 10.4006 28.6017C7.97371 28.6017 6.06697 30.5085 6.06697 32.9353V33.802H2.60014C1.1267 33.802 0 32.6753 0 31.2019V21.668H27.7349V33.802ZM16.3809 32.0685H26.0014V23.4014H1.73346V31.2019C1.73346 31.7219 2.08012 32.0685 2.60014 32.0685H4.42025C4.85364 29.1218 7.36704 26.8683 10.4006 26.8683C13.4341 26.8683 15.9475 29.1218 16.3809 32.0685Z" fill="#333333"/>
<path d="M12.1336 32.9351C12.1336 33.8885 11.3535 34.6686 10.4001 34.6686C9.44667 34.6686 8.66663 33.8885 8.66663 32.9351C8.66663 31.9817 9.44667 31.2017 10.4001 31.2017C11.3535 31.2017 12.1336 31.9818 12.1336 32.9351Z" fill="#333333"/>
<path d="M43.3359 32.9351C43.3359 33.8885 42.5558 34.6686 41.6024 34.6686C40.649 34.6686 39.869 33.8885 39.869 32.9351C39.869 31.9817 40.649 31.2017 41.6024 31.2017C42.5558 31.2018 43.3359 31.9818 43.3359 32.9351Z" fill="#333333"/>
<path d="M44.8093 14.7343H33.542C32.242 14.7343 31.2019 13.6942 31.2019 12.3941V6.93384H36.6622C37.8756 6.93384 38.9157 7.45387 39.6957 8.40729L44.8093 14.7343ZM32.9354 8.6673V12.3941C32.9354 12.7408 33.1954 13.0008 33.542 13.0008H41.2558L38.3957 9.44724C37.9623 8.92721 37.3556 8.6672 36.6622 8.6672L32.9354 8.6673Z" fill="#333333"/>
</svg>

<svg width="52" height="39" fill="none" xmlns="http://www.w3.org/2000/svg"><path d="M44.202 32.935c0 2.86-1.733 5.2-3.9 5.2s-3.9-2.34-3.9-5.2c0-2.86 1.733-5.2 3.9-5.2 2.166 0 3.9 2.34 3.9 5.2zM13.088 32.935c0 2.86-1.734 5.2-3.9 5.2-2.167 0-3.9-2.34-3.9-5.2 0-2.86 1.733-5.2 3.9-5.2 2.166 0 3.9 2.34 3.9 5.2z" fill="#FECC00"/><path d="M50.27 16.467h-5.201l-7.194-7.973c-.347-.434-.953-.694-1.474-.694h-9.533V3.38A2.515 2.515 0 0 0 24.354.866H5.98A2.515 2.515 0 0 0 3.466 3.38v19.154h23.402v10.401h9.534c0-2.86 2.34-5.2 5.2-5.2 2.86 0 5.2 2.34 5.2 5.2h3.207c.607 0 1.127-.52 1.127-1.127V18.114c0-.52-.52-1.3-.867-1.647z" fill="#FED100"/><path d="M27.735 23.401H0V3.381C0 1.472 1.473 0 3.38 0h21.061c1.82 0 3.294 1.473 3.294 3.38v20.021zM1.733 21.668h24.268V3.38c0-.866-.693-1.647-1.646-1.647H3.38c-.953 0-1.647.694-1.647 1.647v18.288zM41.602 39.002a6.03 6.03 0 0 1-6.067-6.067 6.03 6.03 0 0 1 6.067-6.067 6.03 6.03 0 0 1 6.067 6.067 6.03 6.03 0 0 1-6.067 6.067zm0-10.4a4.292 4.292 0 0 0-4.334 4.333 4.291 4.291 0 0 0 4.334 4.334 4.292 4.292 0 0 0 4.334-4.334 4.292 4.292 0 0 0-4.334-4.334zM10.401 39.002a6.03 6.03 0 0 1-6.067-6.067 6.03 6.03 0 0 1 6.067-6.067 6.03 6.03 0 0 1 6.067 6.067 6.03 6.03 0 0 1-6.067 6.067zm0-10.4a4.292 4.292 0 0 0-4.334 4.333 4.291 4.291 0 0 0 4.334 4.334 4.291 4.291 0 0 0 4.334-4.334 4.292 4.292 0 0 0-4.334-4.334zM50.703 23.401H35.97c-.52 0-.867-.346-.867-.866s.347-.867.867-.867h14.734c.52 0 .867.347.867.867s-.347.866-.867.866z" fill="#333"/><path d="M13.867 15.6h-13c-.52 0-.867-.346-.867-.866s.347-.867.867-.867h13c.52 0 .867.347.867.867s-.347.867-.867.867zM10.4 11.267H.868c-.52 0-.867-.347-.867-.867s.347-.866.867-.866H10.4c.52 0 .866.346.866.866s-.346.867-.866.867zM49.23 33.802h-3.294v-.867a4.292 4.292 0 0 0-4.334-4.333 4.292 4.292 0 0 0-4.334 4.333v.867H26.001V6.934h10.66c1.214 0 2.254.52 3.034 1.473l5.72 7.194.087.087h3.64c1.56 0 2.774 1.3 2.774 2.773V31.03c.087 1.473-1.213 2.773-2.687 2.773zm-1.647-1.733h1.56c.606 0 1.04-.52 1.04-1.127v-12.48c0-.607-.52-1.04-1.04-1.04h-3.64c-.607 0-1.127-.26-1.474-.694l-5.72-7.194c-.347-.607-.954-.867-1.647-.867h-8.927V32.07h7.887c.433-2.947 2.947-5.2 5.98-5.2 3.034 0 5.547 2.253 5.98 5.2z" fill="#333"/><path d="M27.735 33.802h-13v-.867a4.292 4.292 0 0 0-4.334-4.333 4.291 4.291 0 0 0-4.334 4.333v.867H2.6c-1.473 0-2.6-1.127-2.6-2.6v-9.534h27.735v12.134zM16.38 32.069H26V23.4H1.733v7.8c0 .52.347.867.867.867h1.82c.434-2.946 2.947-5.2 5.98-5.2 3.034 0 5.547 2.254 5.98 5.2z" fill="#333"/><path d="M12.134 32.935c0 .953-.78 1.734-1.734 1.734-.953 0-1.733-.78-1.733-1.734 0-.953.78-1.733 1.733-1.733.954 0 1.734.78 1.734 1.733zM43.336 32.935c0 .953-.78 1.734-1.734 1.734-.953 0-1.733-.78-1.733-1.734 0-.953.78-1.733 1.733-1.733.954 0 1.734.78 1.734 1.733zM44.81 14.734H33.541a2.33 2.33 0 0 1-2.34-2.34v-5.46h5.46c1.214 0 2.254.52 3.034 1.473l5.113 6.327zM32.934 8.667v3.727c0 .347.26.607.607.607h7.714l-2.86-3.554c-.434-.52-1.04-.78-1.734-.78h-3.727z" fill="#333"/></svg>
